austria/municipalities/70223.svg

<?xml version="1.0" encoding="UTF-8"?>
<!DOCTYPE svg PUBLIC "-//W3C//DTD SVG 1.1//EN" "http://www.w3.org/Graphics/SVG/1.1/DTD/svg11.dtd">
<svg xmlns="http://www.w3.org/2000/svg" version="1.1" width="166px" height="192px" style="shape-rendering:geometricPrecision; text-rendering:geometricPrecision; image-rendering:optimizeQuality; fill-rule:evenodd; clip-rule:evenodd" xmlns:xlink="http://www.w3.org/1999/xlink">
<g><path style="opacity:1" fill="#000000" d="M -0.5,-0.5 C 54.8333,-0.5 110.167,-0.5 165.5,-0.5C 165.5,39.5 165.5,79.5 165.5,119.5C 161.89,140.883 151.89,158.716 135.5,173C 130.672,176.581 125.672,179.915 120.5,183C 112.336,186.554 104.002,189.388 95.5,191.5C 86.8333,191.5 78.1667,191.5 69.5,191.5C 30.064,182.064 6.73062,157.397 -0.5,117.5C -0.5,78.1667 -0.5,38.8333 -0.5,-0.5 Z"/></g>
<g><path style="opacity:1" fill="#fefffe" d="M 159.5,4.5 C 121.617,23.3794 87.6169,47.7127 57.5,77.5C 54.4275,79.5691 52.0941,82.2358 50.5,85.5C 30.2407,107.202 23.7407,132.535 31,161.5C 32.3194,165.472 34.1528,169.139 36.5,172.5C 18.8102,160.586 7.97686,143.586 4,121.5C 3.50001,82.1681 3.33335,42.8347 3.5,3.5C 55.6693,3.16775 107.669,3.50108 159.5,4.5 Z"/></g>
<g><path style="opacity:1" fill="#013163" d="M 159.5,4.5 C 160.116,5.20222 160.116,6.20222 159.5,7.5C 146.225,30.3843 135.392,54.3843 127,79.5C 121.91,98.0214 121.243,116.688 125,135.5C 127.819,144.479 132.652,152.146 139.5,158.5C 140.058,159.79 141.058,160.623 142.5,161C 119.668,185.295 92.0017,193.295 59.5,185C 50.8885,182.365 43.2218,178.198 36.5,172.5C 34.1528,169.139 32.3194,165.472 31,161.5C 23.7407,132.535 30.2407,107.202 50.5,85.5C 53.5725,83.4309 55.9059,80.7642 57.5,77.5C 87.6169,47.7127 121.617,23.3794 159.5,4.5 Z"/></g>
<g><path style="opacity:1" fill="#fefffe" d="M 139.5,158.5 C 132.652,152.146 127.819,144.479 125,135.5C 121.243,116.688 121.91,98.0214 127,79.5C 135.392,54.3843 146.225,30.3843 159.5,7.5C 160.117,7.38929 160.617,7.05596 161,6.5C 161.667,45.5 161.667,84.5 161,123.5C 158.217,134.525 153.884,144.858 148,154.5C 146.316,156.351 144.483,158.018 142.5,159.5C 141.583,158.873 140.583,158.539 139.5,158.5 Z"/></g>
<g><path style="opacity:1" fill="#000000" d="M 42.5,11.5 C 45.2282,11.1706 47.5615,11.8372 49.5,13.5C 46.9327,13.2785 44.5994,12.6118 42.5,11.5 Z"/></g>
<g><path style="opacity:1" fill="#0b2f5c" d="M 42.5,11.5 C 44.5994,12.6118 46.9327,13.2785 49.5,13.5C 51.0269,13.427 52.0269,14.0937 52.5,15.5C 52.8928,18.5133 52.2261,21.1799 50.5,23.5C 50.5,24.1667 50.5,24.8333 50.5,25.5C 51.1667,25.1667 51.8333,24.8333 52.5,24.5C 53.8333,23.8333 54.8333,22.8333 55.5,21.5C 56.5268,20.1522 57.8602,19.6522 59.5,20C 63.1667,23.6667 66.8333,27.3333 70.5,31C 68.1653,33.8671 67.8319,37.0338 69.5,40.5C 67.9843,46.031 64.3176,48.031 58.5,46.5C 66.2686,50.7672 66.4352,55.7672 59,61.5C 58.7811,62.938 58.2811,64.2713 57.5,65.5C 56.8333,65.1667 56.1667,64.8333 55.5,64.5C 44.2549,71.05 39.2549,68.05 40.5,55.5C 40.5804,51.5732 41.2471,47.9065 42.5,44.5C 40.6976,43.5418 38.6976,42.8751 36.5,42.5C 36.504,36.2158 39.1707,34.8825 44.5,38.5C 43.3955,36.8467 43.2288,35.18 44,33.5C 43.3109,34.3567 42.4776,35.0233 41.5,35.5C 39.8716,34.4647 38.205,34.4647 36.5,35.5C 35.8333,36.5 35.1667,37.5 34.5,38.5C 33.6836,40.1436 32.3502,41.3103 30.5,42C 33.2487,43.1227 35.7487,44.6227 38,46.5C 38.4995,52.4908 38.6662,58.4908 38.5,64.5C 38.1257,66.9497 36.6257,67.9497 34,67.5C 30.4867,67.1067 27.1533,66.1067 24,64.5C 23.228,64.6448 22.5613,64.9781 22,65.5C 20.1249,61.1217 17.6249,57.1217 14.5,53.5C 14.8533,49.8133 16.8533,47.8133 20.5,47.5C 21.552,47.6495 22.552,47.4828 23.5,47C 22.3659,45.984 22.6992,45.3173 24.5,45C 22.4652,44.4014 20.7985,44.9014 19.5,46.5C 16.6354,46.9452 14.1354,46.2785 12,44.5C 12.0723,39.6918 11.239,35.1918 9.5,31C 13.58,28.5893 16.58,25.256 18.5,21C 19.6086,20.3623 20.7753,19.8623 22,19.5C 23.3932,20.6151 24.8932,21.1151 26.5,21C 25.6933,18.3998 26.36,16.0664 28.5,14C 31.6438,12.3084 34.9771,11.1418 38.5,10.5C 38.8076,9.69194 39.3076,9.02527 40,8.5C 40.6979,9.69057 41.5313,10.6906 42.5,11.5 Z"/></g>
<g><path style="opacity:1" fill="#0e0e0e" d="M 52.5,15.5 C 52.9397,17.8439 53.9397,19.8439 55.5,21.5C 54.8333,22.8333 53.8333,23.8333 52.5,24.5C 52.1583,23.6618 51.4916,23.3284 50.5,23.5C 52.2261,21.1799 52.8928,18.5133 52.5,15.5 Z"/></g>
<g><path style="opacity:1" fill="#fefffe" d="M 50.5,23.5 C 51.4916,23.3284 52.1583,23.6618 52.5,24.5C 51.8333,24.8333 51.1667,25.1667 50.5,25.5C 50.5,24.8333 50.5,24.1667 50.5,23.5 Z"/></g>
<g><path style="opacity:1" fill="#fefffe" d="M 30.5,27.5 C 28.9153,26.9976 28.4153,25.9976 29,24.5C 30.0386,25.2438 30.5386,26.2438 30.5,27.5 Z"/></g>
<g><path style="opacity:1" fill="#fefffe" d="M 50.5,25.5 C 50.573,27.0269 49.9063,28.0269 48.5,28.5C 48.427,26.9731 49.0937,25.9731 50.5,25.5 Z"/></g>
<g><path style="opacity:1" fill="#fefffe" d="M 30.5,27.5 C 31.9063,27.9731 32.573,28.9731 32.5,30.5C 31.0937,30.0269 30.427,29.0269 30.5,27.5 Z"/></g>
<g><path style="opacity:1" fill="#fefffe" d="M 48.5,28.5 C 48.4827,30.0281 47.816,30.5281 46.5,30C 47.0442,29.2828 47.7109,28.7828 48.5,28.5 Z"/></g>
<g><path style="opacity:1" fill="#fefffe" d="M 32.5,30.5 C 33.8333,30.5 34.5,31.1667 34.5,32.5C 33.5,32.1667 32.8333,31.5 32.5,30.5 Z"/></g>
<g><path style="opacity:1" fill="#fefffe" d="M 34.5,32.5 C 35.9063,32.9731 36.573,33.9731 36.5,35.5C 35.0937,35.0269 34.427,34.0269 34.5,32.5 Z"/></g>
<g><path style="opacity:1" fill="#fefffe" d="M 44.5,38.5 C 39.1707,34.8825 36.504,36.2158 36.5,42.5C 36.5654,42.9382 36.3988,43.2716 36,43.5C 35.2496,42.8742 34.4162,42.3742 33.5,42C 34.3366,40.9887 34.67,39.8221 34.5,38.5C 35.1667,37.5 35.8333,36.5 36.5,35.5C 38.205,34.4647 39.8716,34.4647 41.5,35.5C 42.4776,35.0233 43.3109,34.3567 44,33.5C 43.2288,35.18 43.3955,36.8467 44.5,38.5 Z"/></g>
<g><path style="opacity:1" fill="#fefffe" d="M 44.5,38.5 C 45.2485,39.531 45.9152,40.6976 46.5,42C 46.1667,42.1667 45.8333,42.3333 45.5,42.5C 44.5713,41.3112 44.238,39.9778 44.5,38.5 Z"/></g>
<g><path style="opacity:1" fill="#060606" d="M 34.5,38.5 C 34.67,39.8221 34.3366,40.9887 33.5,42C 34.4162,42.3742 35.2496,42.8742 36,43.5C 36.3988,43.2716 36.5654,42.9382 36.5,42.5C 38.6976,42.8751 40.6976,43.5418 42.5,44.5C 41.1266,44.3433 39.7932,44.51 38.5,45C 39.8261,51.5987 39.8261,58.0987 38.5,64.5C 38.6662,58.4908 38.4995,52.4908 38,46.5C 35.7487,44.6227 33.2487,43.1227 30.5,42C 32.3502,41.3103 33.6836,40.1436 34.5,38.5 Z"/></g>
<g><path style="opacity:1" fill="#fefffe" d="M 52.5,43.5 C 52.1583,44.3382 51.4916,44.6716 50.5,44.5C 49.5266,44.0133 48.5266,43.5133 47.5,43C 49.1966,42.6155 50.8632,42.7822 52.5,43.5 Z"/></g>
<g><path style="opacity:1" fill="#000000" d="M 52.5,43.5 C 53.791,43.2627 54.791,43.596 55.5,44.5C 54.7611,44.369 54.0944,44.5357 53.5,45C 54.4158,45.2784 55.0825,45.7784 55.5,46.5C 53.4471,46.5979 51.7804,45.9313 50.5,44.5C 51.4916,44.6716 52.1583,44.3382 52.5,43.5 Z"/></g>
<g><path style="opacity:1" fill="#000000" d="M 20.5,47.5 C 20.5,46.8333 20.1667,46.5 19.5,46.5C 20.7985,44.9014 22.4652,44.4014 24.5,45C 22.6992,45.3173 22.3659,45.984 23.5,47C 22.552,47.4828 21.552,47.6495 20.5,47.5 Z"/></g>
<g><path style="opacity:1" fill="#fefffe" d="M 55.5,44.5 C 56.7095,44.9321 57.7095,45.5987 58.5,46.5C 57.5,46.5 56.5,46.5 55.5,46.5C 55.0825,45.7784 54.4158,45.2784 53.5,45C 54.0944,44.5357 54.7611,44.369 55.5,44.5 Z"/></g>
<g><path style="opacity:1" fill="#000000" d="M 57.5,77.5 C 55.9059,80.7642 53.5725,83.4309 50.5,85.5C 52.0941,82.2358 54.4275,79.5691 57.5,77.5 Z"/></g>
<g><path style="opacity:1" fill="#fefffe" d="M -0.5,117.5 C 6.73062,157.397 30.064,182.064 69.5,191.5C 46.1667,191.5 22.8333,191.5 -0.5,191.5C -0.5,166.833 -0.5,142.167 -0.5,117.5 Z"/></g>
<g><path style="opacity:1" fill="#fefffe" d="M 165.5,119.5 C 165.5,143.5 165.5,167.5 165.5,191.5C 142.167,191.5 118.833,191.5 95.5,191.5C 104.002,189.388 112.336,186.554 120.5,183C 125.672,179.915 130.672,176.581 135.5,173C 151.89,158.716 161.89,140.883 165.5,119.5 Z"/></g>
</svg>

<svg xmlns="http://www.w3.org/2000/svg" width="166" height="192" style="shape-rendering:geometricPrecision;text-rendering:geometricPrecision;image-rendering:optimizeQuality;fill-rule:evenodd;clip-rule:evenodd"><path style="opacity:1" d="M-.5-.5h166v120c-3.61 21.383-13.61 39.216-30 53.5a179.617 179.617 0 0 1-15 10 157.946 157.946 0 0 1-25 8.5h-26c-39.436-9.436-62.77-34.103-70-74V-.5z"/><path style="opacity:1" fill="#fefffe" d="M159.5 4.5c-37.883 18.88-71.883 43.213-102 73-3.072 2.07-5.406 4.736-7 8-20.26 21.702-26.76 47.035-19.5 76a42.5 42.5 0 0 0 5.5 11c-17.69-11.914-28.523-28.914-32.5-51-.5-39.332-.667-78.665-.5-118 52.17-.332 104.169.001 156 1z"/><path style="opacity:1" fill="#013163" d="M159.5 4.5c.616.702.616 1.702 0 3a388.458 388.458 0 0 0-32.5 72c-5.09 18.521-5.757 37.188-2 56 2.819 8.979 7.652 16.646 14.5 23 .558 1.29 1.558 2.123 3 2.5-22.832 24.295-50.498 32.295-83 24-8.611-2.635-16.278-6.802-23-12.5a42.5 42.5 0 0 1-5.5-11c-7.26-28.965-.76-54.298 19.5-76 3.072-2.07 5.406-4.736 7-8 30.117-29.787 64.117-54.12 102-73z"/><path style="opacity:1" fill="#fefffe" d="M139.5 158.5c-6.848-6.354-11.681-14.021-14.5-23-3.757-18.812-3.09-37.479 2-56a388.458 388.458 0 0 1 32.5-72c.617-.11 1.117-.444 1.5-1 .667 39 .667 78 0 117-2.783 11.025-7.116 21.358-13 31a38.929 38.929 0 0 1-5.5 5 5.576 5.576 0 0 0-3-1z"/><path style="opacity:1" d="M42.5 11.5c2.728-.33 5.062.337 7 2-2.567-.222-4.9-.888-7-2z"/><path style="opacity:1" fill="#0b2f5c" d="M42.5 11.5c2.1 1.112 4.433 1.778 7 2 1.527-.073 2.527.594 3 2 .393 3.013-.274 5.68-2 8v2l2-1a6.541 6.541 0 0 0 3-3c1.027-1.348 2.36-1.848 4-1.5l11 11c-2.335 2.867-2.668 6.034-1 9.5-1.516 5.531-5.182 7.531-11 6 7.769 4.267 7.935 9.267.5 15a10.253 10.253 0 0 1-1.5 4l-2-1c-11.245 6.55-16.245 3.55-15-9 .08-3.927.747-7.593 2-11-1.802-.958-3.802-1.625-6-2 .004-6.284 2.67-7.617 8-4-1.105-1.653-1.271-3.32-.5-5a7.253 7.253 0 0 1-2.5 2c-1.628-1.035-3.295-1.035-5 0l-2 3c-.816 1.644-2.15 2.81-4 3.5a28.409 28.409 0 0 1 7.5 4.5c.5 5.99.666 11.99.5 18-.374 2.45-1.874 3.45-4.5 3a28.944 28.944 0 0 1-10-3 3.943 3.943 0 0 0-2 1 45.967 45.967 0 0 0-7.5-12c.353-3.687 2.353-5.687 6-6a4.932 4.932 0 0 0 3-.5c-1.134-1.016-.8-1.683 1-2-2.035-.599-3.701-.099-5 1.5-2.865.445-5.365-.221-7.5-2 .072-4.808-.761-9.308-2.5-13.5 4.08-2.41 7.08-5.744 9-10a16.228 16.228 0 0 1 3.5-1.5c1.393 1.115 2.893 1.615 4.5 1.5-.807-2.6-.14-4.934 2-7a33.734 33.734 0 0 1 10-3.5 4.452 4.452 0 0 1 1.5-2c.698 1.19 1.531 2.19 2.5 3z"/><path style="opacity:1" fill="#0e0e0e" d="M52.5 15.5c.44 2.344 1.44 4.344 3 6a6.541 6.541 0 0 1-3 3c-.342-.838-1.008-1.172-2-1 1.726-2.32 2.393-4.987 2-8z"/><path style="opacity:1" fill="#fefffe" d="M50.5 23.5c.992-.172 1.658.162 2 1l-2 1v-2zM30.5 27.5c-1.585-.502-2.085-1.502-1.5-3 1.039.744 1.539 1.744 1.5 3zM50.5 25.5c.073 1.527-.594 2.527-2 3-.073-1.527.594-2.527 2-3zM30.5 27.5c1.406.473 2.073 1.473 2 3-1.406-.473-2.073-1.473-2-3zM48.5 28.5c-.017 1.528-.684 2.028-2 1.5.544-.717 1.21-1.217 2-1.5zM32.5 30.5c1.333 0 2 .667 2 2-1-.333-1.667-1-2-2zM34.5 32.5c1.406.473 2.073 1.473 2 3-1.406-.473-2.073-1.473-2-3zM44.5 38.5c-5.33-3.617-7.996-2.284-8 4 .065.438-.101.772-.5 1a9.468 9.468 0 0 0-2.5-1.5c.837-1.011 1.17-2.178 1-3.5l2-3c1.705-1.035 3.372-1.035 5 0a7.253 7.253 0 0 0 2.5-2c-.771 1.68-.605 3.347.5 5zM44.5 38.5a19.606 19.606 0 0 1 2 3.5l-1 .5c-.929-1.189-1.262-2.522-1-4z"/><path style="opacity:1" fill="#060606" d="M34.5 38.5c.17 1.322-.163 2.489-1 3.5.916.374 1.75.874 2.5 1.5.399-.228.565-.562.5-1 2.198.375 4.198 1.042 6 2a8.434 8.434 0 0 0-4 .5c1.326 6.599 1.326 13.099 0 19.5.166-6.01 0-12.01-.5-18a28.409 28.409 0 0 0-7.5-4.5c1.85-.69 3.184-1.856 4-3.5z"/><path style="opacity:1" fill="#fefffe" d="M52.5 43.5c-.342.838-1.008 1.172-2 1l-3-1.5c1.697-.385 3.363-.218 5 .5z"/><path style="opacity:1" d="M52.5 43.5c1.291-.237 2.291.096 3 1a2.428 2.428 0 0 0-2 .5c.916.278 1.583.778 2 1.5-2.053.098-3.72-.569-5-2 .992.172 1.658-.162 2-1zM20.5 47.5c0-.667-.333-1-1-1 1.299-1.599 2.965-2.099 5-1.5-1.8.317-2.134.984-1 2a4.932 4.932 0 0 1-3 .5z"/><path style="opacity:1" fill="#fefffe" d="M55.5 44.5c1.21.432 2.21 1.099 3 2h-3c-.417-.722-1.084-1.222-2-1.5a2.428 2.428 0 0 1 2-.5z"/><path style="opacity:1" d="M57.5 77.5c-1.594 3.264-3.928 5.93-7 8 1.594-3.264 3.928-5.93 7-8z"/><path style="opacity:1" fill="#fefffe" d="M-.5 117.5c7.23 39.897 30.564 64.564 70 74h-70v-74zM165.5 119.5v72h-70a157.946 157.946 0 0 0 25-8.5 179.617 179.617 0 0 0 15-10c16.39-14.284 26.39-32.117 30-53.5z"/></svg>
